X: 29794
T: O'Callaghan's
R: polka
M: 2/4
K: Gmajor
A|Bd cA|D2 B2|D2 A2|D2 B2|
Bd cA|D2 B2|Bd cA|G2 G:|
B|e2 ef/e/|d2 de|f2 fd|g2 gf|
e2 e>f|eddc|B/c/d ef|gd ef|
g2 d>c|BG GA/G/|FA AB/A/|GA Bd|
g2 d2|B2 BA|Bd cA|G2 G:|

